www/assets/icons/mark_email_read.svg

<svg xmlns="http://www.w3.org/2000/svg" width="24" height="24" viewBox="0 0 24 24" fill='currentColor'><path d="M11.5 18a6.995 6.995 0 0 1 10-6.32V5c0-1.1-.9-2-2-2h-16c-1.1 0-2 .9-2 2v12c0 1.1.9 2 2 2h8.08c-.05-.33-.08-.66-.08-1m-8-13 8 5 8-5v2l-8 5-8-5zm13.34 16-3.54-3.54 1.41-1.41 2.12 2.12 4.24-4.24 1.43 1.41z"/></svg>

<svg width="24" height="24" viewBox="0 0 24 24" xmlns="http://www.w3.org/2000/svg" fill='currentColor'><path d="M11.5 18C11.5 14.13 14.63 11 18.5 11C19.58 11 20.59 11.25 21.5 11.68V5C21.5 3.9 20.6 3 19.5 3H3.5C2.4 3 1.5 3.9 1.5 5V17C1.5 18.1 2.4 19 3.5 19H11.58C11.53 18.67 11.5 18.34 11.5 18ZM3.5 5L11.5 10L19.5 5V7L11.5 12L3.5 7V5ZM16.84 21L13.3 17.46L14.71 16.05L16.83 18.17L21.07 13.93L22.5 15.34L16.84 21Z"/></svg>
